unum/images-source/face_6.svg

<?xml version="1.0" encoding="UTF-8"?>
<svg width="94px" height="90px" viewBox="0 0 94 90" version="1.1" xmlns="http://www.w3.org/2000/svg" xmlns:xlink="http://www.w3.org/1999/xlink">
    <!-- Generator: Sketch 43.2 (39069) - http://www.bohemiancoding.com/sketch -->
    <title>print-icon-12</title>
    <desc>Created with Sketch.</desc>
    <defs>
        <path d="M54.8837543,5.78253426 L54.2575987,3.48968652 L57.8200637,7.62583341 L57.8200637,9.40416167 C60.4839492,10.5327394 62.6784276,12.2387667 64.4064327,14.5242844 C63.6428079,14.3387841 62.930734,14.1816046 62.2676964,14.052704 C60.9441359,13.7949445 60.5057431,13.8315947 60.9516799,14.1606556 C61.4407854,14.5452333 62.3469088,16.0961635 63.6721458,18.8102808 C64.9261335,21.4237765 65.673832,23.231425 65.9177561,24.2301026 C66.1055189,25.0024232 65.7899265,27.3371688 64.9693022,31.2375047 C64.5656958,33.1939615 64.1423912,35.0655396 63.6943588,36.8511979 L63.2190841,37.6214362 C63.0480858,38.079356 63.3565533,38.1778536 64.1474206,37.9211352 C64.9261335,37.6643753 65.4076949,37.9368365 65.5946196,38.736395 C65.6947877,39.1492933 65.7161625,39.5862642 65.6600013,40.0421017 L64.1910084,45.1203265 C63.1683714,48.5627425 62.506172,50.4416507 62.2031529,50.7570927 C61.8875604,51.0693695 61.4122857,51.0913596 60.7773287,50.8199395 C60.4466481,50.7350609 60.2597235,50.5202405 60.2152975,50.1775607 L60.3033113,51.1416704 C60.2882232,52.1570905 60.1658421,53.3297318 59.9357487,54.6563874 C59.6918247,55.9861874 58.9776552,57.5549179 57.799108,59.3699131 L55.5082335,62.0284803 C55.0773848,63.7282021 54.8024463,64.7614475 54.6884474,65.1345054 C54.6452787,65.1345054 54.6230657,65.1554627 54.6230657,65.1984309 C54.5958233,65.3545693 54.6146834,65.3346574 54.6884474,65.1345054 C54.9474596,65.1502233 56.0426032,66.1268858 57.9701063,68.0686741 C59.0937497,69.1710844 60.2018858,70.3059801 61.2957721,71.477551 C77.5779135,76.8628008 88.1819047,80.2968247 93.1056504,81.783821 L93.1056504,89.9900652 L0.334033479,89.9900652 L0.334033479,86.6472087 C1.73026828,86.2469006 3.09909305,85.8895607 4.43723871,85.5772839 C5.55996002,84.7064616 8.82137574,82.876798 14.2194322,80.0914334 C16.8387241,78.72076 19.3659786,77.4339157 21.7993518,76.2340491 L21.7993518,75.3569421 C21.7993518,73.4853598 22.5545943,71.7416285 24.0659177,70.1299298 C24.8148736,69.3261774 25.5625721,68.7152428 26.3123662,68.2845482 C26.9590584,67.6694197 27.4280464,66.9117758 27.7151392,66.0126619 C27.9452325,65.2979821 28.1828699,64.8285133 28.4280513,64.6000698 C27.8387777,63.1853786 27.0181534,62.064106 25.9670167,61.234157 C24.2243426,59.8341384 22.9942444,57.413448 22.2725309,53.972069 C22.0424376,52.884348 21.8764687,51.7704304 21.7763005,50.6292333 L21.7109188,49.2145338 C20.6895392,49.5718737 19.976627,49.6934442 19.5742781,49.5792038 C19.1706717,49.4650049 18.5876848,47.8721769 17.8253173,44.8007197 C16.9897726,41.4725441 16.6517995,38.7940358 16.8102244,36.7652781 C16.9538546,34.8937 17.5949725,33.9935199 18.7314408,34.0658625 C19.293472,34.1098428 19.8320329,34.3383238 20.3517337,34.7511805 C19.991296,33.6225611 19.6174468,32.3797429 19.2276712,31.0226843 C18.4514729,28.3232687 18.0269109,26.1802705 17.9552425,24.5947725 C17.8823168,23.0805343 18.702941,20.7876865 20.4171154,17.7162293 C20.8341333,16.9743117 21.3877823,16.0028719 22.0793196,14.8019933 C22.5252564,13.9594541 22.6908062,13.4815849 22.5759691,13.3663448 C22.3898827,13.1661845 22.3898827,12.9104657 22.5759691,12.5950654 C22.8492311,12.1528468 23.0013694,11.8531478 23.0298691,11.6959682 C23.1006993,11.1677882 23.7281122,10.610288 24.908755,10.0234675 C25.3852871,9.78140931 27.666522,8.54487998 31.7537171,6.31804433 L32.1858231,5.69557322 L31.040805,4.98822347 L30.2423937,3.57460681 L29.6162381,1.98906717 L33.1787031,2.73835647 L32.3790345,2.52249485 L33.8048587,2.24582714 C34.1502082,1.88744604 34.2654645,1.70927586 34.1502082,1.70927586 L34.2369647,0.936996865 L34.8622821,1.36559651 L35.4029386,1.19475638 L35.921382,0.208656516 L36.1812324,0.894016122 C36.3811495,1.4231957 36.5986694,1.90106494 36.8287628,2.32966458 C37.0303564,2.72998522 37.2101561,2.96575459 37.3694192,3.03701433 C37.6569311,3.16591491 37.8870244,3.31576444 38.0592801,3.48656292 C38.3635565,3.77264308 38.6213113,3.85752172 38.8375739,3.74436408 C38.9389994,3.68776444 39.0106678,3.6018446 39.0529982,3.48656292 C38.7508174,2.95842454 38.4477983,2.544485 38.1468748,2.24478594 C37.9746191,2.05824451 37.8161942,1.75121541 37.6716001,1.32261576 L37.5416749,0.744166592 L39.0529982,1.36451366 L40.3933233,2.521412 L41.9901458,2.60841469 L41.2784911,1.64430497 C41.2784911,1.28804792 41.1250955,0.960028213 40.8254293,0.659287953 C40.6372474,0.472746529 40.9255975,0.565996417 41.6883841,0.936996865 C42.0630716,1.12349664 42.4591339,1.32994581 42.8765709,1.55942633 L43.7613196,1.64430497 L44.3212553,1.88011599 C44.7395306,2.10855531 45.1133798,2.35165472 45.4448986,2.60841469 C45.7923437,2.86617421 46.0278855,2.70795343 46.1578107,2.1368343 C46.258398,1.4221545 46.3237797,0.98622481 46.3510221,0.830086431 C46.3807791,0.643545007 46.6108724,0.486365428 47.0429785,0.357464846 C47.2575646,0.300906852 47.4667023,0.250596059 47.6682959,0.207615316 L49.1150758,2.60841469 C49.2873314,2.89449485 49.640225,3.39435423 50.1724992,4.10799283 L50.4985695,3.85123287 C50.7131556,3.65107255 50.784824,3.44358218 50.7131556,3.22876176 L49.8070322,0.486365428 L50.1310069,0.530387371 C50.3761883,0.61526601 50.5991567,0.809137483 50.8007504,1.10883654 C51.0891005,1.56571518 51.7726746,2.70795343 52.8531493,4.53659248 L54.0824093,6.65755889 L54.8837543,5.78253426 Z" id="path-1"></path>
    </defs>
    <g id="Pages" stroke="none" stroke-width="1" fill="none" fill-rule="evenodd">
        <g id="Print" transform="translate(-917.000000, -6615.000000)">
            <g id="Iconography" transform="translate(379.000000, 6010.000000)">
                <g id="Group-2" transform="translate(4.000000, 495.000000)">
                    <g id="Page-1" transform="translate(0.000000, 110.000000)">
                        <g id="print-icon-12" transform="translate(534.000000, 0.000000)">
                            <mask id="mask-2" fill="white">
                                <use xlink:href="#path-1"></use>
                            </mask>
                            <g id="Clip-8"></g>
                            <polygon id="Fill-7" fill="#8394A1" mask="url(#mask-2)" points="-4.06665853 94.3563873 97.5062586 94.3563873 97.5062586 -4.15868346 -4.06665853 -4.15868346"></polygon>
                        </g>
                    </g>
                </g>
            </g>
        </g>
    </g>
</svg>

<svg width="94" height="90" viewBox="0 0 94 90" xmlns="http://www.w3.org/2000/svg" xmlns:xlink="http://www.w3.org/1999/xlink"><title>print-icon-12</title><defs><path d="M54.884 5.783l-.626-2.293 3.562 4.136v1.778c2.664 1.129 4.858 2.835 6.586 5.12a47.505 47.505 0 0 0-2.138-.471c-1.324-.258-1.762-.221-1.316.108.489.384 1.395 1.935 2.72 4.65 1.254 2.613 2.002 4.42 2.246 5.42.188.771-.128 3.106-.949 7.007a136.081 136.081 0 0 1-1.275 5.613l-.475.77c-.17.458.138.557.928.3.78-.257 1.26.016 1.448.815.1.413.121.85.065 1.306l-1.469 5.078c-1.023 3.443-1.685 5.322-1.988 5.637-.315.312-.79.334-1.426.063-.33-.085-.517-.3-.562-.642l.088.964c-.015 1.015-.137 2.188-.367 3.514-.244 1.33-.958 2.899-2.137 4.714l-2.29 2.658c-.432 1.7-.707 2.733-.82 3.107-.044 0-.066.02-.066.063-.027.157-.008.137.065-.063.26.015 1.355.992 3.282 2.934a108.64 108.64 0 0 1 3.326 3.409c16.282 5.385 26.886 8.819 31.81 10.306v8.206H.334v-3.343a86.17 86.17 0 0 1 4.103-1.07c1.123-.87 4.384-2.7 9.782-5.486a354.92 354.92 0 0 1 7.58-3.857v-.877c0-1.872.756-3.615 2.267-5.227.749-.804 1.497-1.415 2.246-1.845a5.305 5.305 0 0 0 1.403-2.272c.23-.715.468-1.184.713-1.413-.59-1.415-1.41-2.536-2.461-3.366-1.743-1.4-2.973-3.82-3.694-7.262a27.94 27.94 0 0 1-.497-3.343l-.065-1.414c-1.021.357-1.734.478-2.137.364-.403-.114-.986-1.707-1.749-4.778-.835-3.328-1.173-6.007-1.015-8.036.144-1.871.785-2.771 1.921-2.7.562.045 1.101.273 1.62.686a133.31 133.31 0 0 1-1.123-3.728c-.777-2.7-1.201-4.843-1.273-6.428-.073-1.514.748-3.807 2.462-6.879.417-.742.97-1.713 1.662-2.914.446-.843.612-1.32.497-1.436-.186-.2-.186-.456 0-.77.273-.443.425-.743.454-.9.07-.528.698-1.086 1.879-1.673.476-.242 2.758-1.478 6.845-3.705l.432-.622-1.145-.708-.799-1.413-.626-1.586 3.563.75-.8-.217 1.426-.276c.345-.359.46-.537.345-.537l.087-.772.625.429.54-.171.52-.986.26.685c.2.53.417 1.007.647 1.436.201.4.381.636.54.707.288.129.518.279.69.45.305.286.562.37.779.257a.469.469 0 0 0 .215-.257c-.302-.529-.605-.943-.906-1.242-.172-.187-.33-.494-.475-.922l-.13-.579 1.511.62 1.34 1.157 1.597.087-.712-.964c0-.356-.153-.684-.453-.985-.188-.186.1-.093.863.278.375.186.771.393 1.189.622l.884.085.56.236a8.55 8.55 0 0 1 1.124.728c.347.258.583.1.713-.471.1-.715.166-1.15.193-1.307.03-.186.26-.344.692-.473.215-.056.424-.106.625-.15l1.447 2.401c.172.286.525.786 1.057 1.5l.327-.257c.214-.2.286-.407.214-.622L49.807.486l.324.044c.245.085.468.28.67.579.288.457.972 1.599 2.052 3.428l1.23 2.12.8-.874z" id="a"/></defs><g fill="none" fill-rule="evenodd"><mask id="b" fill="#fff"><use xlink:href="#a"/></mask><path fill="#8394A1" mask="url(#b)" d="M-4.067 94.356H97.506V-4.159H-4.067z"/></g></svg>
